public/html5_light.svg

<?xml version="1.0" encoding="UTF-8" standalone="no"?>
<svg
   xmlns:dc="http://purl.org/dc/elements/1.1/"
   xmlns:cc="http://creativecommons.org/ns#"
   xmlns:rdf="http://www.w3.org/1999/02/22-rdf-syntax-ns#"
   xmlns:svg="http://www.w3.org/2000/svg"
   xmlns="http://www.w3.org/2000/svg"
   xmlns:sodipodi="http://sodipodi.sourceforge.net/DTD/sodipodi-0.dtd"
   xmlns:inkscape="http://www.inkscape.org/namespaces/inkscape"
   viewBox="0 0 512 512"
   version="1.1"
   id="svg1242"
   sodipodi:docname="html5.svg"
   inkscape:version="1.0.1 (1.0.1+r74)">
  <metadata
     id="metadata1248">
    <rdf:RDF>
      <cc:Work
         rdf:about="">
        <dc:format>image/svg+xml</dc:format>
        <dc:type
           rdf:resource="http://purl.org/dc/dcmitype/StillImage" />
        <dc:title>HTML5 Logo</dc:title>
      </cc:Work>
    </rdf:RDF>
  </metadata>
  <defs
     id="defs1246" />
  <sodipodi:namedview
     pagecolor="#ffffff"
     bordercolor="#666666"
     borderopacity="1"
     objecttolerance="10"
     gridtolerance="10"
     guidetolerance="10"
     inkscape:pageopacity="0"
     inkscape:pageshadow="2"
     inkscape:window-width="1260"
     inkscape:window-height="1032"
     id="namedview1244"
     showgrid="false"
     inkscape:zoom="0.31764562"
     inkscape:cx="-72.979694"
     inkscape:cy="78.246758"
     inkscape:window-x="2048"
     inkscape:window-y="28"
     inkscape:window-maximized="0"
     inkscape:current-layer="svg1242"
     inkscape:document-rotation="0" />
  <title
     id="title1230">HTML5 Logo</title>
  <path
     d="m 114.45811,10.50729 h 22.05598 v 21.864195 h 20.32987 V 10.50729 h 22.05599 V 76.675247 H 156.84396 V 54.619262 H 136.70589 V 76.675247 H 114.45811 M 208.0522,32.563277 H 188.5854 V 10.50729 h 61.08549 v 22.055987 h -19.5627 v 44.11197 H 208.0522 M 259.35634,10.50729 h 23.11084 l 14.19255,23.302629 14.19254,-23.302629 h 23.11085 V 76.675247 H 311.90713 V 43.878955 L 296.46793,67.661063 281.02875,43.878955 V 76.675247 H 259.35634 M 344.89522,10.50729 h 22.05598 v 44.303763 h 31.26196 v 21.864194 h -53.31794"
     id="path1232"
     style="stroke-width:0.958956" />
  <path
     fill="#e44d26"
     d="M 113.69094,462.17551 82.0454,106.97826 H 429.9546 L 398.30906,461.98373 255.71231,501.4927"
     id="path1234"
     style="stroke-width:0.958956" />
  <path
     fill="#f16529"
     d="M 256,471.2856 V 136.13052 h 142.21316 l -27.13845,303.03006"
     id="path1236"
     style="stroke-width:0.958956" />
  <path
     fill="#ebebeb"
     d="M 146.67903,179.57122 H 256 v 43.53659 h -61.56497 l 4.02762,44.59146 H 256 v 43.4407 h -97.42992 m 1.91792,21.86419 h 43.72838 l 3.06866,34.8101 L 256,380.85605 v 45.45452 l -89.37469,-24.93285"
     id="path1238"
     style="stroke-width:0.958956" />
  <path
     fill="#ffffff"
     d="M 364.93739,179.57122 H 255.80821 v 43.53659 h 105.10156 m -3.93171,44.59146 H 255.80821 v 43.53659 h 53.70153 l -5.08247,56.5784 -48.61906,13.04179 v 45.26273 l 89.18289,-24.74106"
     id="path1240"
     style="stroke-width:0.958956" />
</svg>

<svg xmlns="http://www.w3.org/2000/svg" viewBox="0 0 512 512"><path d="M114.458 10.507h22.056v21.864h20.33V10.507H178.9v66.168h-22.056V54.62h-20.138v22.056h-22.248m93.594-44.112h-19.467V10.507h61.086v22.056h-19.563v44.112h-22.056m51.304-66.168h23.111L296.66 33.81l14.192-23.303h23.111v66.168h-22.056V43.88l-15.44 23.782L281.03 43.88v32.796h-21.673m85.54-66.168h22.055v44.304h31.262v21.864h-53.318"/><path fill="#e44d26" d="M113.69 462.176L82.046 106.978h347.91l-31.646 355.006-142.597 39.509"/><path fill="#f16529" d="M256 471.286V136.13h142.213l-27.138 303.03"/><path fill="#ebebeb" d="M146.679 179.571H256v43.537h-61.565l4.028 44.591H256v43.441h-97.43m1.918 21.864h43.728l3.069 34.81L256 380.856v45.455l-89.375-24.933"/><path fill="#fff" d="M364.937 179.571H255.808v43.537H360.91m-3.932 44.591h-101.17v43.537h53.702l-5.083 56.578-48.619 13.042v45.263l89.183-24.741"/></svg>
